proprietary/assets/icons/computer-en-internet/chip.svg

<svg height="64" viewBox="0 0 64 64" width="64" xmlns="http://www.w3.org/2000/svg"><path d="m0 0h64v64h-64z" fill="none"/><path d="m16.0625 11c-4.9839 0-9.0253 4.024-9.0593 9h15.9968v33h17v-42z"/><path d="m47.9375 11h-5.9375v9h14.9968c-.034-4.976-4.0754-9-9.0593-9z"/><path d="m42 22h15v9h-15z"/><path d="m42 33h15v9h-15z"/><path d="m16.0625 53h4.9375v-9h-13.9968c.034 4.976 4.0754 9 9.0593 9z"/><path d="m42 53h5.9375c4.984 0 9.0253-4.024 9.0593-9h-14.9968z"/><path d="m7 33h14v9h-14z"/><path d="m7 22h14v9h-14z"/></svg>

<?xml version="1.0" encoding="utf-8"?>
<!-- Generator: Adobe Illustrator 19.1.0, SVG Export Plug-In . SVG Version: 6.00 Build 0)  -->
<svg version="1.2" baseProfile="tiny" xmlns="http://www.w3.org/2000/svg" xmlns:xlink="http://www.w3.org/1999/xlink" x="0px"
	 y="0px" width="64px" height="64px" viewBox="0 0 64 64" xml:space="preserve">
<g id="_x36_4px_Box">
	<rect fill="none" width="64" height="64"/>
</g>
<g id="Icon">
	<g>
		<path d="M16.0625,11c-4.9839,0-9.0253,4.024-9.0593,9H23v33h17V11H16.0625z"/>
		<path d="M47.9375,11H42v9h14.9968C56.9628,15.024,52.9214,11,47.9375,11z"/>
		<rect x="42" y="22" width="15" height="9"/>
		<rect x="42" y="33" width="15" height="9"/>
		<path d="M16.0625,53H21v-9H7.0032C7.0372,48.976,11.0786,53,16.0625,53z"/>
		<path d="M42,53h5.9375c4.984,0,9.0253-4.024,9.0593-9H42V53z"/>
		<rect x="7" y="33" width="14" height="9"/>
		<rect x="7" y="22" width="14" height="9"/>
	</g>
</g>
</svg>
